X: 18755
T: Ievan Polkka
R: polka
M: 2/4
K: Aminor
|:A>B AB|cA Ac|BG GB|c/d/c/B/ AE|
A>B AB|cA Ac|Bd cB|1 cB A2:|2 AB cd||
|:[e^d]2 ce|dB Bc|de/d/ cB|cB AB|
[e^d]2 ge|dB Bc|de/d/ cB|1 AB cd:|2 cB A2||

